src/images/Roff/Process4.svg

<svg fill="none" height="200" viewBox="0 0 200 200" width="200" xmlns="http://www.w3.org/2000/svg"><rect fill="#b9d053" height="200" rx="20" width="200"/><path d="m133.954 66.0456c-5.038-5.0826-11.152-8.9687-17.892-11.3715s-13.934-3.2608-21.0507-2.5108c-22.0553 2.2236-40.2044 20.1323-42.6683 42.1875-3.3053 29.1462 19.2308 53.7262 47.6563 53.7262 9.0747 0 17.9637-2.575 25.6337-7.426s13.806-11.779 17.696-19.978c1.923-4.026-.962-8.654-5.409-8.654-2.224 0-4.327 1.202-5.289 3.185-3.489 7.506-9.456 13.582-16.899 17.205-7.443 3.622-15.9058 4.571-23.9659 2.687-13.3414-2.945-24.0986-13.822-26.9231-27.163-1.1873-5.275-1.1736-10.7496.0402-16.0185 1.2138-5.2688 3.5966-10.1974 6.9721-14.4211 3.3756-4.2237 7.6574-7.6346 12.529-9.9802 4.8715-2.3456 10.2081-3.5661 15.615-3.571 9.9757 0 18.8697 4.1466 25.3607 10.6971l-9.075 9.0745c-3.786 3.7861-1.142 10.2765 4.207 10.2765h21.575c3.305 0 6.009-2.7044 6.009-6.0096v-21.5746c0-5.3485-6.49-8.0529-10.276-4.2668z" fill="#fbfbfb"/></svg>

<svg width="200" height="200" viewBox="0 0 200 200" fill="none" xmlns="http://www.w3.org/2000/svg">
<rect width="200" height="200" rx="20" fill="#B9D053"/>
<path d="M133.954 66.0456C128.916 60.963 122.802 57.0769 116.062 54.6741C109.322 52.2713 102.128 51.4133 95.0113 52.1633C72.956 54.3869 54.8069 72.2956 52.343 94.3508C49.0377 123.497 71.5738 148.077 99.9993 148.077C109.074 148.077 117.963 145.502 125.633 140.651C133.303 135.8 139.439 128.872 143.329 120.673C145.252 116.647 142.367 112.019 137.92 112.019C135.696 112.019 133.593 113.221 132.631 115.204C129.142 122.71 123.175 128.786 115.732 132.409C108.289 136.031 99.8262 136.98 91.7661 135.096C78.4247 132.151 67.6675 121.274 64.843 107.933C63.6557 102.658 63.6694 97.1834 64.8832 91.9145C66.097 86.6457 68.4798 81.7171 71.8553 77.4934C75.2309 73.2697 79.5127 69.8588 84.3843 67.5132C89.2558 65.1676 94.5924 63.9471 99.9993 63.9422C109.975 63.9422 118.869 68.0888 125.36 74.6393L116.285 83.7138C112.499 87.4999 115.143 93.9903 120.492 93.9903H142.067C145.372 93.9903 148.076 91.2859 148.076 87.9807V66.4061C148.076 61.0576 141.586 58.3532 137.8 62.1393L133.954 66.0456V66.0456Z" fill="#FBFBFB"/>
</svg>
